X:1
T:Title
%%score ( 1 2 ) 3
L:1/8
Q:1/4=96
M:4/4
K:Bb
V:1 treble nm="Grand Piano, Soprano"
V:2 treble 
V:3 bass nm="Choir Pad, Bass"
V:1
 [DF]2 [B,D][CE] [DF] [Fd]2 [Fc] | [GB]2 [FA][EG] [DF] [B,D]3 | [B,G]2 [EA][DB] [DF] [DB]2 [FB] | %3
w: By~Daniel~Brink~Towner,~1899 * * * * *|||
 [=EB]2 [EA][EB] [_Ec]4 | [DF]2 [B,D][CE] [DF] [Fd]2 [Fc] | [GB]2 [FA][EG] [DF] [B,D]3 | %6
w: |||
 [B,G][EB][EA][EG] [DF] [FB]2 [Fc] | [Fd][DB] [Ec]2 [DB]4 | [Ac]2 [Ac][Ac] [Ac]2 [FA][Ac] | %9
w: |||
 cB[FA][=EG] [FA] [CF]3 | [Ac]2 [Ac][Ac] [Ac]2 [FA][Ac] | cB[FA][=EG] F2 _E2 | %12
w: |||
 [DB]2 [DB][DB] [DB]2 [FA][FB] | G2 z2 z4 | [B,G][EB][EA][EG] [DF] [FB]2 [Fc] | %15
w: |||
 [Fd][DB] [Ec]2 [DB]4- | [DB]4 z4 |] %17
w: ||
V:2
 x8 | x8 | x8 | x8 | x8 | x8 | x8 | x8 | x8 | G2 z2 z4 | x8 | G2 z2 z4 | x8 | %13
 cB[FA][EG] [DF] [B,D]3 | x8 | x8 | x8 |] %17
V:3
 [B,,B,]2 [B,,F,][B,,F,] [B,,B,] [B,,B,]2 [D,B,] | [E,B,]2 [E,B,][E,B,] [B,,B,] [B,,F,]3 | %2
 E,2 [C,F,][B,,F,] [B,,F,] [B,,F,]2 [D,F,] | [C,G,]2 [C,G,][C,G,] [F,A,]4 | %4
 B,2 B,B, B, B,2 [D,B,] | [E,B,]2 [E,B,][E,B,] [B,,B,] [B,,F,]3 | %6
 E,G,[E,C][E,B,] [B,,B,] [D,B,]2 [E,B,] | [F,B,]F, [F,,F,]2 [B,,F,]4 | F,2 F,F, F,2 F,F, | %9
 [C,=E,]2 [C,F,][C,C] [F,C] [F,A,]3 | F,2 F,F, F,2 F,F, | [C,=E,]2 [C,F,][C,B,] [F,A,]4 | %12
 [B,,B,]2 [B,,F,][B,,F,] [B,,F,]2 [C,F,][D,F,] | E,2 [E,B,][E,B,] [B,,B,] [B,,F,]3 | %14
 F,G,[E,C][E,B,] [B,,B,] [D,B,]2 [E,B,] | [F,B,]F, [F,,F,]2 [B,,F,]4- | [B,,F,]4 z4 |] %17

